_includes/icons/ios-asp.svg

<svg fill="#666" height="50" viewBox="0 0 50 50" width="50" xmlns="http://www.w3.org/2000/svg"><path d="m5.953125 4c-.511719 0-1.03125.1875-1.398437.554688-.367188.367187-.554688.886718-.554688 1.398437v38.09375c0 .507813.1875 1.03125.554688 1.398438.367187.367187.886718.554687 1.398437.554687h38.09375c.507813 0 1.03125-.1875 1.398438-.554687.367187-.367188.554687-.886719.554687-1.398438v-38.09375c0-.511719-.1875-1.03125-.554687-1.398437-.367188-.367188-.886719-.554688-1.398438-.554688zm.046875 2h38v38h-38zm20.546875 14.855469c-2.117187 0-3.195312 1.347656-3.195312 2.96875 0 .914062.523437 1.980469 1.902343 2.820312.859375.554688 1.308594.914063 1.308594 1.652344 0 .65625-.449219 1.140625-1.378906 1.140625-.570313 0-1.265625-.167969-1.667969-.390625l-.285156 1.691406c.332031.195313 1.125.40625 1.9375.40625 1.980469 0 3.34375-1.214843 3.34375-3.058593 0-1.066407-.496094-2.085938-1.828125-2.898438-1.097656-.65625-1.398438-.972656-1.398438-1.574219 0-.539062.40625-1.050781 1.246094-1.050781.570313 0 1.003906.167969 1.289063.347656l.316406-1.695312c-.300781-.179688-.933594-.359375-1.589844-.359375zm6.6875 0c-1.964844 0-4.078125 1.484375-4.078125 5.296875 0 2.863281 1.230469 4.992187 3.8125 4.992187.6875 0 1.242188-.105468 1.527344-.238281l-.199219-1.652344c-.238281.078125-.613281.152344-.941406.152344-1.199219 0-2.117188-.945312-2.117188-3.359375 0-2.507812 1.007813-3.46875 2.117188-3.46875.433594 0 .6875.09375.914062.199219l.328125-1.652344c-.191406-.136719-.671875-.269531-1.363281-.269531zm-14.921875.089844-2.191406 10.109375h1.90625l.449219-2.308594h1.8125l.433593 2.308594h1.90625l-1.964843-10.109375zm1.09375 1.859375h.042969c.089844.675781.226562 1.679687.332031 2.292968l.328125 2.117188h-1.4375l.375-2.101563c.101563-.582031.253906-1.632812.359375-2.308593z"/></svg>

<svg xmlns="http://www.w3.org/2000/svg" viewBox="0 0 50 50" width="50" height="50" fill="#666"><path d="M 5.953125 4 C 5.441406 4 4.921875 4.1875 4.554688 4.554688 C 4.1875 4.921875 4 5.441406 4 5.953125 L 4 44.046875 C 4 44.554688 4.1875 45.078125 4.554688 45.445313 C 4.921875 45.8125 5.441406 46 5.953125 46 L 44.046875 46 C 44.554688 46 45.078125 45.8125 45.445313 45.445313 C 45.8125 45.078125 46 44.558594 46 44.046875 L 46 5.953125 C 46 5.441406 45.8125 4.921875 45.445313 4.554688 C 45.078125 4.1875 44.558594 4 44.046875 4 Z M 6 6 L 44 6 L 44 44 L 6 44 Z M 26.546875 20.855469 C 24.429688 20.855469 23.351563 22.203125 23.351563 23.824219 C 23.351563 24.738281 23.875 25.804688 25.253906 26.644531 C 26.113281 27.199219 26.5625 27.558594 26.5625 28.296875 C 26.5625 28.953125 26.113281 29.4375 25.183594 29.4375 C 24.613281 29.4375 23.917969 29.269531 23.515625 29.046875 L 23.230469 30.738281 C 23.5625 30.933594 24.355469 31.144531 25.167969 31.144531 C 27.148438 31.144531 28.511719 29.929688 28.511719 28.085938 C 28.511719 27.019531 28.015625 26 26.683594 25.1875 C 25.585938 24.53125 25.285156 24.214844 25.285156 23.613281 C 25.285156 23.074219 25.691406 22.5625 26.53125 22.5625 C 27.101563 22.5625 27.535156 22.730469 27.820313 22.910156 L 28.136719 21.214844 C 27.835938 21.035156 27.203125 20.855469 26.546875 20.855469 Z M 33.234375 20.855469 C 31.269531 20.855469 29.15625 22.339844 29.15625 26.152344 C 29.15625 29.015625 30.386719 31.144531 32.96875 31.144531 C 33.65625 31.144531 34.210938 31.039063 34.496094 30.90625 L 34.296875 29.253906 C 34.058594 29.332031 33.683594 29.40625 33.355469 29.40625 C 32.15625 29.40625 31.238281 28.460938 31.238281 26.046875 C 31.238281 23.539063 32.246094 22.578125 33.355469 22.578125 C 33.789063 22.578125 34.042969 22.671875 34.269531 22.777344 L 34.597656 21.125 C 34.40625 20.988281 33.925781 20.855469 33.234375 20.855469 Z M 18.3125 20.945313 L 16.121094 31.054688 L 18.027344 31.054688 L 18.476563 28.746094 L 20.289063 28.746094 L 20.722656 31.054688 L 22.628906 31.054688 L 20.664063 20.945313 Z M 19.40625 22.804688 L 19.449219 22.804688 C 19.539063 23.480469 19.675781 24.484375 19.78125 25.097656 L 20.109375 27.214844 L 18.671875 27.214844 L 19.046875 25.113281 C 19.148438 24.53125 19.300781 23.480469 19.40625 22.804688 Z"/></svg>
